docs/images/icons/Visa_secure.svg

<svg width="42" height="22" viewBox="0 0 42 22" fill="none" xmlns="http://www.w3.org/2000/svg">
<g id="Visa secure">
<path id="Vector" d="M0.488754 9.27539H41.4888V18.2754C41.4888 19.071 41.1688 19.8341 40.5992 20.3967C40.0297 20.9593 39.2572 21.2754 38.4517 21.2754H3.52579C2.72032 21.2754 1.94784 20.9593 1.37828 20.3967C0.808727 19.8341 0.488754 19.071 0.488754 18.2754V9.27539Z" fill="#C9C9C9"/>
<path id="Vector_2" d="M14.1175 15.9736C14.277 16.0659 14.5253 16.1461 14.7811 16.1461C15.0993 16.1461 15.2784 15.9976 15.2784 15.7786C15.2784 15.5739 15.1395 15.4546 14.7933 15.3301C14.3377 15.1749 14.0484 14.9349 14.0484 14.5516C14.0484 14.1076 14.4228 13.7761 15.0218 13.7761C15.3187 13.7761 15.5343 13.8399 15.6771 13.9081L15.5594 14.3079C15.389 14.2228 15.2006 14.1791 15.0097 14.1804C14.6915 14.1804 14.5571 14.3439 14.5571 14.5029C14.5571 14.7114 14.7166 14.8066 15.0826 14.9431C15.5594 15.1231 15.7871 15.3586 15.7871 15.7419C15.7871 16.1776 15.4531 16.5496 14.7485 16.5496C14.4554 16.5496 14.1547 16.4694 14.0036 16.3816L14.1175 15.9736ZM17.7339 15.3144H16.6998V16.1056H17.8561V16.5091H16.1979V13.8159H17.7939V14.2194H16.699V14.9146H17.7331V15.3144H17.7339ZM20.222 16.4289C20.1043 16.4844 19.8439 16.5489 19.5098 16.5489C18.6382 16.5489 18.109 16.0126 18.109 15.1936C18.109 14.3071 18.7399 13.7754 19.5789 13.7754C19.9084 13.7754 20.1407 13.8391 20.2425 13.8909L20.1362 14.2831C19.9663 14.2128 19.7836 14.1773 19.5994 14.1789C19.0413 14.1789 18.6382 14.5231 18.6382 15.1704C18.6382 15.7614 18.9889 16.1371 19.5948 16.1371C19.7945 16.1371 20.0064 16.0974 20.1415 16.0411L20.222 16.4289ZM21.1065 13.8159V15.3864C21.1065 15.9136 21.3305 16.1574 21.6684 16.1574C22.0305 16.1574 22.2462 15.9136 22.2462 15.3864V13.8159H22.7473V15.3541C22.7473 16.1851 22.3115 16.5526 21.6517 16.5526C21.0169 16.5526 20.6054 16.2054 20.6054 15.3579V13.8159H21.1065ZM23.2818 13.8556C23.4716 13.8196 23.7495 13.7956 24.0388 13.7956C24.4336 13.7956 24.6978 13.8594 24.8854 14.0116C25.0357 14.1354 25.1207 14.3229 25.1207 14.5546C25.1207 14.9019 24.8816 15.1381 24.6204 15.2259V15.2379C24.8201 15.3099 24.9385 15.4981 25.0038 15.7576C25.0926 16.0929 25.1663 16.4049 25.2194 16.5091H24.7062C24.6652 16.4289 24.5961 16.2091 24.5232 15.8731C24.4412 15.5214 24.3151 15.4096 24.0304 15.4021H23.7776V16.5091H23.281V13.8556H23.2818ZM23.7776 15.0421H24.0752C24.4131 15.0421 24.6204 14.8659 24.6204 14.5989C24.6204 14.3064 24.4131 14.1669 24.0874 14.1669C23.9279 14.1669 23.8269 14.1789 23.7776 14.1909V15.0421ZM27.0933 15.3144H26.0584V16.1056H27.2148V16.5091H25.5573V13.8159H27.1533V14.2194H26.0584V14.9146H27.0925V15.3144H27.0933Z" fill="white"/>
<path id="Vector_3" d="M17.976 0.824324L15.6907 6.19207H14.1987L13.0735 1.90807C13.0052 1.64482 12.9459 1.54807 12.7379 1.43632C12.3993 1.25557 11.8389 1.08532 11.3462 0.980324L11.3796 0.824324H13.7804C14.0863 0.824324 14.3612 1.02457 14.4318 1.37182L15.0255 4.47757L16.494 0.825074L17.976 0.824324ZM23.8208 4.43932C23.8269 3.02332 21.8308 2.94457 21.8437 2.31157C21.8483 2.11957 22.0343 1.91407 22.442 1.86157C22.644 1.83607 23.2012 1.81582 23.8337 2.10157L24.0812 0.963824C23.6588 0.80816 23.2118 0.727666 22.7609 0.726074C21.3661 0.726074 20.3844 1.45582 20.3768 2.50057C20.3677 3.27307 21.0784 3.70432 21.6121 3.96157C22.1618 4.22407 22.3463 4.39357 22.344 4.62907C22.3403 4.98907 21.9044 5.14807 21.4998 5.15407C20.7898 5.16457 20.3783 4.96507 20.0503 4.81507L19.7945 5.99182C20.1247 6.14032 20.7329 6.26932 21.3631 6.27682C22.8467 6.27682 23.8155 5.55532 23.8208 4.43932ZM27.504 6.19207H28.8091L27.6695 0.824324H26.4653C26.3368 0.823087 26.2109 0.859947 26.1038 0.93014C25.9968 1.00033 25.9135 1.10063 25.8647 1.21807L23.7464 6.19207H25.2292L25.5231 5.39032H27.3331L27.504 6.19207ZM25.9293 4.29082L26.6718 2.27482L27.0993 4.29082H25.9293ZM19.9926 0.824324L18.8256 6.19207H17.4149L18.5819 0.824324H19.9926Z" fill="#C9C9C9"/>
</g>
</svg>

<svg width="42" height="22" fill="none" xmlns="http://www.w3.org/2000/svg"><path d="M.489 9.275h41v9c0 .796-.32 1.56-.89 2.122a3.056 3.056 0 0 1-2.147.878H3.526a3.056 3.056 0 0 1-2.148-.878 2.982 2.982 0 0 1-.89-2.122v-9Z" fill="#C9C9C9"/><path d="M14.117 15.974a1.4 1.4 0 0 0 .664.172c.318 0 .497-.148.497-.367 0-.205-.139-.324-.485-.449-.455-.155-.745-.395-.745-.778 0-.444.375-.776.974-.776.297 0 .512.064.655.132l-.118.4a1.212 1.212 0 0 0-.55-.128c-.318 0-.452.164-.452.323 0 .208.16.304.526.44.476.18.704.416.704.799 0 .436-.334.808-1.039.808-.293 0-.593-.08-.744-.168l.114-.408Zm3.617-.66H16.7v.792h1.156v.403h-1.658v-2.693h1.596v.403h-1.095v.696h1.034v.4Zm2.488 1.115c-.118.055-.378.12-.712.12-.872 0-1.401-.536-1.401-1.355 0-.887.63-1.419 1.47-1.419.33 0 .562.064.663.116l-.106.392a1.373 1.373 0 0 0-.537-.104c-.558 0-.96.344-.96.991 0 .591.35.967.956.967.2 0 .411-.04.547-.096l.08.388Zm.884-2.613v1.57c0 .528.224.771.562.771.363 0 .578-.243.578-.77v-1.571h.501v1.538c0 .831-.436 1.199-1.095 1.199-.635 0-1.047-.348-1.047-1.195v-1.542h.502Zm2.176.04c.19-.036.468-.06.757-.06.395 0 .659.063.846.216.15.123.236.31.236.543 0 .347-.24.583-.5.67v.013c.2.072.318.26.383.52.089.335.162.647.215.751h-.513c-.04-.08-.11-.3-.183-.636-.082-.352-.208-.463-.493-.47h-.252v1.106h-.497v-2.653Zm.496 1.186h.297c.338 0 .545-.176.545-.443 0-.293-.207-.432-.533-.432-.16 0-.26.012-.31.024v.851Zm3.315.272h-1.035v.792h1.157v.403h-1.658v-2.693h1.596v.403h-1.095v.696h1.035v.4Z" fill="#fff"/><path d="m17.976.824-2.285 5.368h-1.492l-1.126-4.284c-.068-.263-.127-.36-.335-.472-.339-.18-.9-.35-1.392-.456l.034-.156h2.4c.306 0 .581.2.652.548l.593 3.106L16.494.825h1.482Zm5.845 3.615c.006-1.416-1.99-1.494-1.977-2.127.004-.192.19-.398.598-.45.202-.026.76-.046 1.392.24L24.08.964a3.858 3.858 0 0 0-1.32-.238c-1.395 0-2.377.73-2.384 1.775-.01.772.701 1.203 1.235 1.46.55.263.734.433.732.668-.004.36-.44.52-.844.525-.71.01-1.122-.189-1.45-.339l-.256 1.177c.33.148.939.277 1.57.285 1.483 0 2.451-.722 2.457-1.838Zm3.683 1.753h1.305L27.67.824h-1.204a.648.648 0 0 0-.6.394l-2.119 4.974h1.483l.294-.802h1.81l.171.802Zm-1.575-1.901.743-2.016.427 2.016h-1.17ZM19.993.824l-1.167 5.368h-1.411L18.582.824h1.41Z" fill="#C9C9C9"/></svg>
